X:1
T:Lovely Nancy
R:jig
M:6/8
L:1/8
K:A
d|ece a2e|fga e2d|cAA ecA|GAB Bcd|
ece a2e|fga e2d|cAf ecA|1GFG A2:|2GFG A|]
|:ed|cAA eAA|fAA ecA|cAA ecA|GAB Bcd|
cAA eAA|fAA ecA|ccc BAB|1cAG A:|2cAG A2|]
